!!!OTL: ES WOLLT EIN SCHNEIDER WANDERN
!!!ARE: Europa, Mitteleuropa, Deutschland, Wuerttemberg, Stuttgart
!!!SCT: E1637A
!!!YEM: Copyright 1995, estate of Helmut Schaffrath.
**kern
*ICvox
*Ivox
*M2/4
*k[f#]
*G:
{8d
=1
8d
8g
8g
8g
=2
8g
8b
8b}
{8b
=3
16a
16cc
8f#
16a
16cc
8f#
=4
4g
8r}
{8d
=5
8d
8g
8g
8g
=6
8g
8b
8b}
{8b
=7
16a
16cc
8f#
16a
16cc
8f#
=8
4g
8r}
{8d
=9
8d
8d
8cc
8b
=10
4.a}
{8d
=11
8d
8d
8cc
8b
=12
4a
8r}
{8d
=13
8d
8g
8g
8g
=14
16g
16b
4dd}
{8b
=15
16a
16cc
8f#
16a
16cc
8f#
=16
4g
8r}
==
!!!AGN: Staende -, Handwerker - Lied, Schneider
!!!ONB: ESAC (Essen Associative Code) Database: ERK3
!!!AMT: simple duple
!!!AIN: vox
!!!EED: Helmut Schaffrath
!!!EEV: 1.0
*-
